Papirus/32x32/apps/libreoffice-chart.svg

<?xml version="1.0" encoding="UTF-8" standalone="no"?>
<!-- Created with Inkscape (http://www.inkscape.org/) -->

<svg
   width="32"
   height="32"
   viewBox="0 0 32 32"
   version="1.1"
   id="svg5"
   inkscape:version="1.2.2 (1:1.2.2+202305151914+b0a8486541)"
   sodipodi:docname="libreoffice-chart.svg"
   xmlns:inkscape="http://www.inkscape.org/namespaces/inkscape"
   xmlns:sodipodi="http://sodipodi.sourceforge.net/DTD/sodipodi-0.dtd"
   xmlns="http://www.w3.org/2000/svg"
   xmlns:svg="http://www.w3.org/2000/svg">
  <sodipodi:namedview
     id="namedview7"
     pagecolor="#ffffff"
     bordercolor="#000000"
     borderopacity="0.25"
     inkscape:showpageshadow="2"
     inkscape:pageopacity="0.0"
     inkscape:pagecheckerboard="0"
     inkscape:deskcolor="#d1d1d1"
     inkscape:document-units="px"
     showgrid="false"
     inkscape:zoom="25.9375"
     inkscape:cx="16"
     inkscape:cy="16"
     inkscape:window-width="1920"
     inkscape:window-height="1008"
     inkscape:window-x="0"
     inkscape:window-y="0"
     inkscape:window-maximized="1"
     inkscape:current-layer="svg5" />
  <defs
     id="defs2" />
  <path
     d="m 21,3 h 6 V 9 Z M 9,3 h 10 l 8,8 v 16 c 0,2.216 -1.784,4 -4,4 H 9 C 6.784,31 5,29.216 5,27 V 7 C 5,4.784 6.784,3 9,3 Z"
     style="opacity:0.2;fill:#000000;stroke-width:0.5;stroke-linecap:square"
     id="path1115"
     sodipodi:nodetypes="ccccsccssssss" />
  <path
     d="m 9,2 h 10 l 8,8 v 16 c 0,2.216 -1.784,4 -4,4 H 9 C 6.784,30 5,28.216 5,26 V 6 C 5,3.784 6.784,2 9,2 Z"
     style="opacity:1;fill:#4f4f4f;fill-opacity:1;stroke-width:0.5;stroke-linecap:square"
     id="path1004" />
  <path
     id="path3223"
     style="opacity:0.2;fill:#000000;fill-opacity:1;stroke-linecap:square"
     d="M 9,6 C 8.4460012,6 8,6.4460012 8,7 v 19 c 0,0.553998 0.4460012,1 1,1 h 14 c 0.553999,0 1,-0.446001 1,-1 V 12 L 18,6 Z" />
  <path
     d="m 21,2 h 6 v 6 z"
     style="fill:#5f5f5f;fill-opacity:1;stroke-width:0.375;stroke-linecap:square"
     id="path1087" />
  <path
     id="path2611"
     style="fill:#ededed;fill-opacity:1;stroke-linecap:square"
     d="M 9,5 C 8.4460012,5 8,5.4460012 8,6 v 19 c 0,0.553998 0.4460012,1 1,1 h 14 c 0.553999,0 1,-0.446001 1,-1 V 11 L 18,5 Z" />
  <rect
     style="fill:#0c9ce8;fill-opacity:1;stroke-width:2.64575;stroke-linecap:square"
     id="rect4025"
     width="3.0000007"
     height="7"
     x="10"
     y="17" />
  <rect
     style="fill:#e8660c;fill-opacity:1;stroke-width:1.36931;stroke-linecap:square"
     id="rect4027"
     width="3.0000007"
     height="9.999999"
     x="13.000001"
     y="14" />
  <rect
     style="fill:#e8a30c;stroke-width:2.44949;stroke-linecap:square"
     id="rect4029"
     width="3.0000007"
     height="3.9999995"
     x="16.000002"
     y="20" />
  <rect
     style="fill:#7bcd27;fill-opacity:1;stroke-width:2.64575;stroke-linecap:square"
     id="rect4031"
     width="3.0000007"
     height="7"
     x="19"
     y="17" />
  <path
     d="m 18,7 6,4 v 1 h -6 z"
     style="opacity:0.2;stroke-linecap:square"
     id="path3306" />
  <path
     d="m 18,5 6,6 h -6 z"
     style="fill:#ababab;fill-opacity:1;stroke-width:2.4;stroke-linecap:round;stroke-linejoin:round"
     id="path3195" />
  <path
     id="path2508"
     style="opacity:0.2;fill:#ffffff;stroke-width:0.5;stroke-linecap:square"
     d="M 9 2 C 6.7840022 2 5 3.7840024 5 6 L 5 7 C 5 4.7840022 6.7840022 3 9 3 L 20 3 L 19 2 L 9 2 z M 21 2 L 22 3 L 27 3 L 27 2 L 21 2 z " />
</svg>

<svg xmlns="http://www.w3.org/2000/svg" width="32" height="32" version="1.1">
 <path style="opacity:0.2" d="M 9,3 H 19 L 27,11 V 27 C 27,29.216 25.216,31 23,31 H 9 C 6.784,31 5,29.216 5,27 V 7 C 5,4.784 6.784,3 9,3 Z"/>
 <path style="fill:#4f4f4f" d="m 9,2 h 10 l 8,8 v 16 c 0,2.216 -1.784,4 -4,4 H 9 C 6.784,30 5,28.216 5,26 V 6 C 5,3.784 6.784,2 9,2 Z"/>
 <path style="opacity:0.2" d="M 9,6 C 8.45,6 8,6.45 8,7 v 19 c 0,0.55 0.45,1 1,1 h 14 c 0.55,0 1,-0.45 1,-1 V 12 L 18,6 Z"/>
 <path style="fill:#5f5f5f" d="m 21,2 h 6 v 6 z"/>
 <path style="fill:#ededed" d="M 9,5 C 8.45,5 8,5.45 8,6 V 25 C 8,25.55 8.45,26 9,26 H 23 C 23.55,26 24,25.55 24,25 V 11 L 20,9 18,5 Z"/>
 <rect style="fill:#0c9ce8" width="3" height="7" x="10" y="17"/>
 <rect style="fill:#e8660c" width="3" height="10" x="13" y="14"/>
 <rect style="fill:#e8a30c" width="3" height="4" x="16" y="20"/>
 <rect style="fill:#7bcd27" width="3" height="7" x="19" y="17"/>
 <path style="opacity:0.2" d="m 18,7 6,4 v 1 h -6 z"/>
 <path style="fill:#ababab" d="m 18,5 6,6 h -6 z"/>
 <path style="opacity:0.1;fill:#ffffff" d="M 21,2 22,3 H 27 V 2 Z"/>
 <path style="opacity:0.1;fill:#ffffff" d="M 9 2 C 6.784 2 5 3.784 5 6 L 5 7 C 5 4.784 6.784 3 9 3 L 19 3 L 27 11 L 27 10 L 19 2 L 9 2 z"/>
</svg>
